X: 121005
T: HIGHLAND LADDIE
P: Same figure.
%R: march, reel
B: James Kerr "Merry Melodies" v.1 p.21 s.0 #5
Z: 2017 John Chambers <jc:trillian.mit.edu>
M: 2/4
L: 1/8
K: D
uA |\
vd>ve ufvf | uge f2 |\
vf>ve uevd | uf2 ef |\
d>e fa | g/f/e/d/ uf>ue |\
d>B BA | B2 B :|
|: ua |\
b2 a>uf | ge f2 |\
uf>ue ed | vf2 (ea) |\
b2 a>f | g/f/e/d/ f>ue |\
d>B BA | B2 B :|

%%sep 1 1 500
%%sep 1 1 500

